Papirus/24x24/panel/messenger-notification.svg

<?xml version="1.0" encoding="UTF-8" standalone="no"?>
<svg xmlns:dc="http://purl.org/dc/elements/1.1/" xmlns:cc="http://creativecommons.org/ns#" xmlns:rdf="http://www.w3.org/1999/02/22-rdf-syntax-ns#" xmlns:svg="http://www.w3.org/2000/svg" xmlns="http://www.w3.org/2000/svg" id="svg2" viewBox="0 0 24 24" version="1.1" width="24" height="24">
    <metadata id="metadata51">
        <rdf:RDF>
            <cc:Work rdf:about="">
                <dc:format>
                    image/svg+xml
                </dc:format>
                <dc:type rdf:resource="http://purl.org/dc/dcmitype/StillImage"/>
                <dc:title/>
            </cc:Work>
        </rdf:RDF>
    </metadata>
    <g transform="translate(1,1)" id="g4135">
        <path style="opacity:1;fill:#ffffff;fill-opacity:1" d="M 11.017578,3 C 7.1248216,3 3.8883398,5.5954035 3.1835938,9.0273438 3.0634423,9.545177 3.0016182,10.07352 3,10.603516 c 0.0025,1.892347 0.7736439,3.69109 2.1171875,5.0625 A 3,3 0 0 1 7,15 a 3,3 0 0 1 3,3 3,3 0 0 1 -0.00195,0.03711 c 0.326073,0.03968 0.65412,0.06614 0.984375,0.06641 3.834528,-0.0024 7.123954,-2.56687 7.835937,-6.107422 C 18.935165,11.490386 19,10.965932 19,10.427734 19,6.3250493 15.425632,3 11.017578,3 Z M 10,7 12,10.5 17,8 11,14 9.5,10.5 5,13 10,7 Z" id="path4163"/>
        <circle style="opacity:1;fill:#5294e2;fill-opacity:1;stroke:none;stroke-width:2;stroke-linecap:round;stroke-linejoin:round;stroke-miterlimit:4;stroke-dasharray:none;stroke-opacity:1" id="path4138" cx="7" cy="18" r="2"/>
    </g>
</svg>

<?xml version="1.0" encoding="UTF-8" standalone="no"?>
<svg id="svg2" xmlns:rdf="http://www.w3.org/1999/02/22-rdf-syntax-ns#" xmlns="http://www.w3.org/2000/svg" viewBox="0 0 24 24" width="24" version="1.1" xmlns:cc="http://creativecommons.org/ns#" height="24" xmlns:dc="http://purl.org/dc/elements/1.1/">
 <metadata id="metadata51">
  <rdf:RDF>
   <cc:Work rdf:about="">
    <dc:format>image/svg+xml</dc:format>
    <dc:type rdf:resource="http://purl.org/dc/dcmitype/StillImage"/>
    <dc:title/>
   </cc:Work>
  </rdf:RDF>
 </metadata>
 <g id="g4135" transform="translate(1,1)">
  <path id="path4163" d="m11.018 3c-3.8932 0-7.1297 2.5954-7.8344 6.0273-0.1202 0.5179-0.182 1.0467-0.1836 1.5767 0.0025 1.8923 0.77364 3.6911 2.1172 5.0625a3 3 0 0 1 1.8828 -0.666 3 3 0 0 1 3 3 3 3 0 0 1 -0.00195 0.03711c0.32607 0.03968 0.65412 0.06614 0.98438 0.06641 3.8345-0.0024 7.124-2.5669 7.8359-6.1074 0.117-0.506 0.182-1.03 0.182-1.568 0-4.103-3.574-7.428-7.982-7.428zm-1.018 4 2 3.5 5-2.5-6 6-1.5-3.5-4.5 2.5 5-6z" fill="#fff"/>
  <circle id="path4138" cx="7" cy="18" r="2" fill="#5294e2"/>
 </g>
</svg>
